X:1
T:LIVE WIRES RAG
T:LIVE WIRES RAG
T:ADALINE SHEPHERD
T:Copyright 1910 by Harold Rossiter Music Co.,
T:Copyright 1910 by Harold Rossiter Music Co.,
T:Copyright 1910 by Harold Rossiter Music Co.,
C:ADALINE SHEPHERD
Z:Copyright 1910 by Harold Rossiter Music Co.,
%%score { 1 | 2 }
L:1/8
Q:1/4=90
M:2/4
K:F
V:1 treble nm="Piano" snm="Pno."
V:2 bass 
V:1
"^Not too fast."!f! c/e/d/c/ BG | z [B,CE] [B,C]2 | [B,G]/[B,G][B,G]/ [B,F][B,F] | %3
 [B,E]2 [cec'] z |:!mf! !>![ec']b/g/ !>![ec']b/g/ | !>![ec']/b/g/c/- c/^c/d/e/ | %6
 !>![Af]d/c/ !>![Af]/d/c/!>![Af]/- | [Af]/d/c/A/ !>![Fc]2 | z/ B/c/e/ !>![Bea][Beg] | %9
 z/!8va(! b/c'/e'/ !>![be'a'][be'g'] | f'/^f'/=f'/e'/ _e'/d'/_d'/c'/ | %11
 [fad'][fae']/[fad']/- [fad']2!8va)! | !>![ec']b/g/ !>![ec']b/g/ | !>![ec']/b/g/c/- c/^c/d/e/ | %14
 !>![Af]d/c/ !>![Af]/d/c/!>![Af]/- | [Af]/d/c/A/ !>![Fc]>^c |!<(! [Bd] [df]2 [dg]!<)! | %17
 [ca]/g/f/d/ [Fc]2 | c/=B/_B/A/ _A/G/^F/=F/ |1 E!>![B,EG] !>![A,F]2 :|2 E!>![B,EG] !>![A,F]2 |: %21
!f! c/!>![eb]c/ [ea][Beg] | c/!>![eb]c/ [ea][Beg] | A/!>![fa]A/ [cg][Acf] | %24
 [FA]!>![FAd]/[FAc]/- [FAc]2 |!<(! z/ B/c/e/!<)! !>![Bea][Beg] | B!>![Bea]/[Beg]/ [Beg]2 | %27
 [Af]/[Af][Af]/ [Ae][Ae] | [FAd][FA_d]/[FAc]/- [FAc]2 | c/!>![eb]c/ [ea][Beg] | %30
 c/!>![eb]c/ [ea][Beg] | A/!>![fa]A/ [cg][Acf] | [FA]!>![FAd]/[FAc]/-!<(! [FAc]^c!<)! | %33
 [Bd]/^c/d/[Bdf]/- [Bdf][Bfg] | z/ [Afa][Bgb]/ [=B^g=b][cac'] | z/ [cec'][^ce^c']/ [dfd'][ege'] |1 %36
 [faf']c/!>!c/ !>!c!>!c :|2 [faf']2 [faf'] z |:[K:Bb][M:2/4]!mf!"^TRIO" [DF] [DBd]2 [Ece] | %39
 [Fdf]4 | [G=Bg] [GBg]2 [FBd] | [=EBd] [EBc]2 [EG] | F [FAd]2 [_EAc] | F [FAd]2 [EAc] | %44
!<(! D [DBd]2 [Fdf]!<)! | [Geg][Aea] [Beg][ce_g] | [DF] [DBd]2 [Ece] | [Fdf]4 | %48
 [G=Bg] [GBg]2 [FBd] | [=EBd] [EBc]2 [EG] | F [FAd]2 [_EAc] | F[FAd] [=EA^c][FAd] | [_E=c]4- |1 %53
 [Ec]D/E/ =E/F/G/_G/ :|2{/x-} [Ec]2!sfz! !>![Bdb] z || %55
[K:F]!mf!"^Tempo I." !>![ec']b/g/ !>![ec']b/g/ | !>![ec']/b/g/c/- c/^c/d/e/ | %57
 !>![Af]d/c/ !>![Af]/d/c/!>![Af]/- | [Af]/d/c/A/ !>![Fc]2 | z/ B/c/e/ !>![Bea][Beg] | %60
 z/!8va(! b/c'/e'/ [be'a'][be'g'] | f'/^f'/=f'/e'/ _e'/d'/_d'/c'/ | %62
 [fad'][fae']/[fad']/- [fad']2!8va)! | !>![ec']b/g/ !>![ec']b/g/ | !>![ec']/b/g/c/- c/^c/d/e/ | %65
 !>![Af]d/c/ !>![Af]/d/c/!>![Af]/- | [Af]/d/c/A/ !>![Fc]>^c | [Bd][df] [dg]2 | [ca]/g/f/d/ [Fc]2 | %69
 c/=B/_B/A/ _A/G/^F/=F/ | E!>![B,EG] !>![A,F]2 |] %71
V:2
 C/E/D/C/ B,G, | C,,G, _E,2 | E,/E,E,/ D,D, | C,2 [C,,C,]!>![C,,C,] |: %4
 !>![G,,G,][B,C] [C,,C,][B,C] | [G,,G,][B,C] [C,,C,][B,C] | [F,,F,][A,C] [C,,C,][A,C] | %7
 [F,,F,][A,C] [A,,A,][_A,,_A,] | [G,,G,][B,C] [C,,C,][B,C] | [G,,G,][B,C] [C,,C,][B,C] | %10
 [F,,F,][A,C] [C,,C,][A,C] | [F,,F,][A,C] [C,,C,][A,C] | !>![G,,G,][B,C] [C,,C,][B,C] | %13
 [G,,G,][B,C] [C,,C,][B,C] | [F,,F,][A,C] [C,,C,][A,C] | [F,,F,][A,C] [A,,A,][A,C] | %16
 [B,,B,][F,B,D] [=B,,=B,][F,^G,B,D] | [C,C]!>![F,A,C] !>![F,A,C]2 | %18
 C/=B,/_B,/A,/ _A,/G,/^F,/=F,/ |1 E,[C,,C,] [F,,F,]!>![C,,C,] :|2 %20
 E,!>![C,,C,] !>![F,,F,]!>![C,,C,] |: !>![G,,G,][B,C] [C,,C,][B,C] | [G,,G,][B,C] [C,,C,][B,C] | %23
 [F,,F,][A,C] [C,,C,][A,C] | [F,,F,][A,C] [A,C]!>![C,,C,] | !>![G,,G,][B,C] [C,,C,][B,C] | %26
 [E,,E,][B,C] [B,C]!>![C,,C,] | [F,,F,]F EE | D_D C!>![C,,C,] | !>![G,,G,][B,C] [C,,C,][B,C] | %30
 [G,,G,][B,C] [C,,C,][B,C] | [F,,F,][A,C] [C,,C,][A,C] | [F,,F,][A,C] [A,C][A,,A,] | %33
 [B,,B,][F,B,D] [D,D][_D,_D] | [C,C][A,C] [A,,A,][A,C] | [G,,G,][B,C] [C,,C,][B,C] |1 %36
 [F,,F,]C/!>!C/ !>!C!>!C :|2 [F,,F,]2 [F,,F,] z |:[K:Bb][M:2/4] B,,[F,B,] G,,[F,B,] | %39
 B,,[B,,B,] [A,,A,][_A,,_A,] | [G,,G,][F,G,=B,] =B,,[F,G,B,] | C,[_B,C] [C,C][_B,,_B,] | %42
 [A,,A,][F,A,] F,,[F,A,] | A,,[F,A,] F,,[F,A,] | B,,[F,B,] =B,,[F,^G,=B,] | %45
 C,[F,,F,] [G,,G,][A,,A,] | B,,[F,B,] G,,[F,B,] | B,,[B,,B,] [A,,A,][_A,,_A,] | %48
 [G,,G,][F,G,=B,] =B,,[F,G,B,] | C,[_B,C] [C,C][_B,,_B,] | [A,,A,][F,A,] F,,[F,A,] | %51
 A,,[F,A,] F,,[F,A,] | C,[F,,F,][G,,G,][A,,A,] |1 [B,,B,] z z2 :|2 [B,,B,]2 !>![B,,,B,,] z || %55
[K:F] !>![G,,G,][B,C] [C,,C,][B,C] | [G,,G,][B,C] [C,,C,][B,C] | [F,,F,][A,C] [C,,C,][A,C] | %58
 [F,,F,][A,C] [A,,A,][_A,,_A,] | [G,,G,][B,C] [C,,C,][B,C] | [G,,G,][B,C] [C,,C,][B,C] | %61
 [F,,F,][A,C] [C,,C,][A,C] | [F,,F,][A,C] [C,,C,][A,C] | !>![G,,G,][B,C] [C,,C,][B,C] | %64
 [G,,G,][B,C] [C,,C,][B,C] | [F,,F,][A,C] [C,,C,][A,C] | [F,,F,][A,C] [A,,A,][A,C] | %67
 [B,,B,][F,B,D] [=B,,=B,][F,^G,B,D] | [C,C]!>![F,A,C] !>![F,A,C]2 | C/=B,/_B,/A,/ _A,/G,/^F,/=F,/ | %70
 E,!>![C,,C,] !>![F,,F,]2 |] %71

